X:1
T:Title
%%score ( 1 2 ) { 3 | 4 }
L:1/8
Q:1/4=105
M:9/8
K:Ab
V:1 treble nm="Grand Piano, Soprano"
V:2 treble 
V:3 bass nm="Choir Pad, His Keeping Power, Ruddick"
V:4 bass 
V:1
 [CE][A,C][CE] [Ec]3- [Ec]2 [Ec] | [DB][Ec][DB] [CA]6 | [EA]2 [EA] [FA]3- [FA]2 [EA] | %3
w: By~Thomas~Bryan~Weaver * * * * *|||
 [FA][=EG][FA] [GB]6 | [Ac][GB][_Gc] [Fd]3- [Fd]2 [Fd] | dc[EB] [Ec]6 | cBA [GB]3- [GB]2 [Ac] | %7
w: ||||
 BA[DF] [CE]6 | [Ae]2 [Ae] [Ae]3- [Ae]2 [Ae] | [Ed][Ec][DB] [CA]3- [CA]3/2 z/ [FA] | %10
w: |||
 [FA][EG][FA] [GB]3- [GB]2 [GB] | [AB][Ac][A=d] [Ge]6 | [Ae]2 [Ae] [Ae]3- [Ae]2 [Ae] | %13
w: |||
 [Ed][Ec][DB] [CA]3- [CA]3/2 z/ [FA] | [FA][EG][FA] [GB]3- [GB]2 E | [DE][DF][DG] [CA]6- | %16
w: |||
 [CA]3 z3 z3 |] %17
w: |
V:2
 x9 | x9 | x9 | x9 | x9 | .E3 z3 z3 | .A3 z3 z3 | .F3 z3 z3 | x9 | x9 | x9 | x9 | x9 | x9 | x9 | %15
 x9 | x9 |] %17
V:3
 A,2 A, A,3- A,2 A, | G,2 G, A,6 | C2 C D3- D2 C | C2 C E6 | A,2 A, A,3- A,2 F, | B,A,G, A,6 | %6
 EDC E3- E2 E | D2 A, A,6 | C2 C C3- C2 C | B,A,G, A,3- A,3/2 z/[K:treble] C | %10
 CCC E3- E2[K:bass] B, | B,B,B, B,6 | C2 C C3- C2 C | B,A,G, A,3- A,3/2 z/[K:treble] C | %14
 CCC E3- E2 C | B,B,B, A,6- | A,3 z3 z3 |] %17
V:4
 A,,2 A,, A,,3- A,,2 A,, | E,2 E, A,,6 | A,,2 A,, D,3- D,2 A,, | F,2 F, E,6 | %4
 A,,2 A,, D,3- D,2 D, | E,2 E, A,,6 | A,,2 A,, E,3- E,2 A,, | D,2 D, A,,6 | A,2 A, A,3- A,2 A, | %9
 .G,2 E, F,3- F,3/2 z/ F, | F,C,F, E,3- E,2 E, | z3 E,6 | A,2 A, A,3- A,2 A, | %13
 .G,2 E, F,3- F,3/2 z/ F, | F,C,F, E,3- E,2 E, | E,E,E, A,,6- | A,,3 z3 z3 |] %17

